X:1
T:Title
%%score { ( 1 3 ) | ( 2 4 ) }
L:1/8
M:4/4
K:Eb
V:1 treble nm="Grand Piano"
V:3 treble 
V:2 bass 
V:4 bass 
V:1
 z4 z2[Q:1/4=100] [EG][FA] | [GB]2 [Ge]2 [Ge]2 [EGB]2 | [EAc]2 [EAe]2 [EGB]2 [B,EG]2 | %3
 [GB]3 [Ac] [GB]2 [EG]2 |[M:3/4] [EG]4 [DF]2 |[M:1/4] [EG][FA] |[M:4/4] [GB]2 [Ge]2 [Ge]2 [EGB]2 | %7
 [EAc]2 [EAe]2 [EGB]2 [B,EG]2 | [GB]3 [Ac] [GB]2 [EG]2 |[M:3/4] [DF]4 E2 |[M:1/4] B2 | %11
[M:4/4] c4 e4 | B6 z2 | B2 =A2 c2 e2 |[M:3/4] d6 |[M:1/4] cd |[M:4/4] [Ge]2 [Ge]2 [Ed]2 .[CEc]2 | %17
 [EGB]3 [EAc] [EGB]2 [B,EG]2 | [B,EB]2 [CE]2 [B,EG]2 [A,DF]2 |[M:3/4] [G,E]6 |] %20
V:2
 z4 z2 [E,B,]2 | [E,E]2 [E,B,]2 [E,B,]2 E,2 | A,,2 C,2 E,2 E,2 | [E,E]3 [E,E] [E,E]2 [E,B,]2 | %4
[M:3/4] [B,,B,]4 [B,,B,]2 |[M:1/4] [E,B,]2 |[M:4/4] [E,E]2 [E,B,]2 [E,B,]2 E,2 | A,,2 C,2 E,2 E,2 | %8
 [E,E]3 [E,E] [E,E]2 [E,B,]2 |[M:3/4] [B,,A,]4 [E,G,]2 |[M:1/4] [E,G,E]2 | %11
[M:4/4] [A,E]2 A,2 A,,B,,C,D, | [E,G,E]2 [E,G,]2 [E,G,]2 [E,G,E]2 | %13
 D2[K:treble] [CE]2 [=A,F]2 [CF]2 |[M:3/4] F6 |[M:1/4] [B,A]2 | %16
[M:4/4][K:bass] [E,B,]2 [E,B,]2 A,,-[A,,B,] z D | E,3 E, E,2 E,2 | G,,2 A,,2 B,,2 B,,2 | %19
[M:3/4] E,6 |] %20
V:3
 x8 | x8 | x8 | x8 |[M:3/4] x6 |[M:1/4] x2 |[M:4/4] x8 | x8 | x8 |[M:3/4] x6 |[M:1/4] x2 | %11
[M:4/4] z2 E2 [CE]2 [A,E]2 | z2 E2 E2 B2 | x8 |[M:3/4] z2 B,2 B,2 |[M:1/4] x2 |[M:4/4] x8 | x8 | %18
 x8 |[M:3/4] x6 |] %20
V:4
 x8 | x8 | x8 | x8 |[M:3/4] x6 |[M:1/4] x2 |[M:4/4] x8 | x8 | x8 |[M:3/4] x6 |[M:1/4] x2 | %11
[M:4/4] x8 | x8 | F,4[K:treble] F,4 |[M:3/4] B,2 z2 z2 |[M:1/4] x2 |[M:4/4][K:bass] z4 .A,2 A,,2 | %17
 x8 | x8 |[M:3/4] x6 |] %20

